X: 25919
T: Maudabawn Chapel
R: reel
M: 4/4
K: Gmajor
EF|:G3F E2DB,|G,A,B,D E2 DB,|G,2 B,D G2 Bd|gabg efga|
g3a bgag|gfed effe|d2 gd BcdB|AcBA GEED:|
|:E2BE dEBE|Ed^cB AD (3FED|E2 BE dEBE|BAFE DE (3FED|
EBBA B3d|BAGA B^cde|fd (3d^cd gfe^c|d^cBA GEED:|

